src/pos-icons/unfold-more-vertical.svg

<svg height="24" viewBox="0 0 24 24" width="24" xmlns="http://www.w3.org/2000/svg"><path d="m18.17 12-3.17-3.17 1.41-1.42 4.59 4.59-4.59 4.58-1.41-1.41zm-12.34 0 3.17 3.17-1.41 1.42-4.59-4.59 4.59-4.58 1.41 1.41z"/></svg>

<?xml version="1.0" encoding="UTF-8"?><!DOCTYPE svg PUBLIC "-//W3C//DTD SVG 1.1//EN" "http://www.w3.org/Graphics/SVG/1.1/DTD/svg11.dtd"><svg xmlns="http://www.w3.org/2000/svg" xmlns:xlink="http://www.w3.org/1999/xlink" version="1.1" id="mdi-unfold-more-vertical" width="24" height="24" viewBox="0 0 24 24"><path d="M18.17,12L15,8.83L16.41,7.41L21,12L16.41,16.58L15,15.17L18.17,12M5.83,12L9,15.17L7.59,16.59L3,12L7.59,7.42L9,8.83L5.83,12Z" /></svg>
